!!!!SEGMENT: pl-sa--l-1643--071_anonim--chrystus-zmartwychwstan-jest.krn
!!!cenid: 16xx:1429
!!!COM: Anonim
!!!COM-rismID:
!!!CDT:
!!!CNT:
!!!OTL: Chrystus zmartwychwstan jest
!!!PDT:
!!!AGN: Sacred
!!!SMS-siglum: PL-SA
!!!SMS-shelfmark: L 1643
!!!SMS-shelfwork: 071 W
!!!SMS-variant:
!!!SMS-altvar:
!!!NIFC-rismSourceID: 1001063351
!!!NIFC-islandoraID:
!!!URL-pdf-islandora:
!!!URL-scan:
!!!ONB-nifc: UWAGA: 8 ksiąg. Primi chori: 1mus Cantus (x), C 2dus (109), C 3tius (34-35), Bassus (87-88); Secondi chori: Primus Cantus (87-88), C 2dus (90-91), Altus (x), Bassus (104). UWAGA: Nie dodawać pustych linii, chyba że w rękopisie pojawiają się dodatkowe oznaczenia dotyczące pełnej obsady (a 4, a 8 itp.)
!!!AIN: 6 empty
!!!key:
**kern	**text	**kern	**text	**kern	**text	**kern	**text	**kern	**text	**kern	**text
*part6	*part6	*part5	*part5	*part4	*part4	*part3	*part3	*part2	*part2	*part1	*part1
*staff6	*staff6	*staff5	*staff5	*staff4	*staff4	*staff3	*staff3	*staff2	*staff2	*staff1	*staff1
*Iempty	*	*Iempty	*	*Iempty	*	*Iempty	*	*Iempty	*	*Iempty	*
*I"Baſsus 2di Chori.	*	*I"Cantus 2dus Secundi Chori.	*	*I"Primus Cantus 2di Chori	*	*I"Bassus Primi Chori.	*	*I"Cantus 3tius Primi Chori	*	*I"Cantus 2dus Primi Chori.	*
*I'Coro 2 B	*	*I'Coro 2 S 2	*	*I'Coro 2 S 1	*	*I'Coro 1 B	*	*I'Coro 1 S 3	*	*I'Coro 1 S 2	*
*clefC3	*	*clefC1	*	*clefG2	*	*clefC3	*	*clefC2	*	*clefC1	*
*k[b-]	*	*k[b-]	*	*k[b-]	*	*k[b-]	*	*k[b-]	*	*k[b-]	*
*g:	*	*g:	*	*g:	*	*g:	*	*g:	*	*g:	*
*M2/2	*	*M2/2	*	*M2/2	*	*M2/2	*	*M2/2	*	*M2/2	*
*met(c|)	*	*met(c|)	*	*met(c|)	*	*met(c|)	*	*met(c|)	*	*met(c|)	*
=1-	=1-	=1-	=1-	=1-	=1-	=1-	=1-	=1-	=1-	=1-	=1-
!!LO:TX:t=P:problem:oddech jako rozdzielacz słów:global
00r	.	00r	.	00r	.	00r	.	00r	.	0r	.
=2-	=2-	=2-	=2-	=2-	=2-	=2-	=2-	=2-	=2-	=2-	=2-
.	.	.	.	.	.	.	.	.	.	.	.
=3-	=3-	=3-	=3-	=3-	=3-	=3-	=3-	=3-	=3-	=3-	=3-
.	.	.	.	.	.	.	.	.	.	2.g/	Chriſ-
.	.	.	.	.	.	.	.	.	.	4f/	-tuſ
=4-	=4-	=4-	=4-	=4-	=4-	=4-	=4-	=4-	=4-	=4-	=4-
.	.	.	.	.	.	.	.	.	.	2g/	zmar-
.	.	.	.	.	.	.	.	.	.	2b-\	-twich-
=5-	=5-	=5-	=5-	=5-	=5-	=5-	=5-	=5-	=5-	=5-	=5-
00r	.	0r	.	1r	.	0r	.	2.d/	Chrÿſ-	4a\	.
.	.	.	.	.	.	.	.	.	.	4b-\	.
.	.	.	.	.	.	.	.	.	.	2cc\	.
.	.	.	.	.	.	.	.	4c/	-tus	.	.
=6-	=6-	=6-	=6-	=6-	=6-	=6-	=6-	=6-	=6-	=6-	=6-
!	!	!	!	!	!LO:TX:t=P:problem=litera C.color=red	!	!	!	!	!	!
.	.	.	.	2.dd\	Chrÿs-	.	.	2d/	zmar-	1a	-wſtał
.	.	.	.	.	.	.	.	2f\	-twÿch-	.	.
.	.	.	.	4cc\	-tus	.	.	.	.	.	.
=7-	=7-	=7-	=7-	=7-	=7-	=7-	=7-	=7-	=7-	=7-	=7-
.	.	1r	.	2dd\	zmar-	2.G/	CHri-	2.g\	.	2.b-\	ieſt,
.	.	.	.	2ff\	-twÿch-	.	.	.	.	.	.
.	.	.	.	.	.	4F/	-ſtus	4a\	.	4cc\	nam
=8-	=8-	=8-	=8-	=8-	=8-	=8-	=8-	=8-	=8-	=8-	=8-
!	!	!	!LO:TX:t=P:problem=litera C.color=red	!	!	!	!	!	!	!	!
.	.	2.g/	Chris-	2gg\	-wstał	2G/	3mar-	2d/	.	2.b-\	na
.	.	.	.	2dd\	ieſt	2B-/	-twych-	2f,<\	wſtał	.	.
.	.	4f/	.	.	.	.	.	.	.	4a\	przik-
=9-	=9-	=9-	=9-	=9-	=9-	=9-	=9-	=9-	=9-	=9-	=9-
0r	.	1g	-tus	1r	.	1c	wſtał	2.e/	ieſt	2g/	-kład
.	.	.	.	.	.	.	.	.	.	2cc\	dan
.	.	.	.	.	.	.	.	4f\	wſtał	.	.
=10-	=10-	=10-	=10-	=10-	=10-	=10-	=10-	=10-	=10-	=10-	=10-
.	.	1b-	zmar-	1dd	nąm	1G	ieſt	1g	ieſt,	1b-	ieſt,
=11-	=11-	=11-	=11-	=11-	=11-	=11-	=11-	=11-	=11-	=11-	=11-
1r	.	4a\	-twÿch-	2ff\	na	00r	.	00r	.	00r	.
.	.	4b-\	.	.	.	.	.	.	.	.	.
.	.	2cc\	-wstał	2cc\	przÿ-	.	.	.	.	.	.
=12-	=12-	=12-	=12-	=12-	=12-	=12-	=12-	=12-	=12-	=12-	=12-
2.G/	Chris-	2g/	ieſt,	2b-/	-kład	.	.	.	.	.	.
.	.	2a\	nąm	2a/	.	.	.	.	.	.	.
4F/	-tus	.	.	.	.	.	.	.	.	.	.
=13-	=13-	=13-	=13-	=13-	=13-	=13-	=13-	=13-	=13-	=13-	=13-
2G/	3mar-	2dd\	na	4b-/	dąn	.	.	.	.	.	.
.	.	.	.	4cc\	.	.	.	.	.	.	.
*custos:c	*	*	*	*	*	*	*	*	*	*	*
2B-/	-twych-	2b-\	przy-	2dd\	.	.	.	.	.	.	.
=14-	=14-	=14-	=14-	=14-	=14-	=14-	=14-	=14-	=14-	=14-	=14-
!LO:LB:g=original	!	!	!	!	!	!	!	!	!	!	!
1c	-wstał	2g/	-kład	1cc	.	.	.	.	.	.	.
.	.	2cc\	dan	.	.	.	.	.	.	.	.
=15-	=15-	=15-	=15-	=15-	=15-	=15-	=15-	=15-	=15-	=15-	=15-
2G/	ieſt.	2b-\	ieſt.	2dd\	ieſt.	2r	.	2r	.	2r	.
2r	.	2r	.	2r	.	2d\	nąm	2f\	nąn	2dd\	nam
=16-	=16-	=16-	=16-	=16-	=16-	=16-	=16-	=16-	=16-	=16-	=16-
0r	.	0r	.	0r	.	1g	na	1g	na	1dd	na
=17-	=17-	=17-	=17-	=17-	=17-	=17-	=17-	=17-	=17-	=17-	=17-
.	.	.	.	.	.	2f\	pr3ÿ-	2a\	przÿ-	2a\	przik-
*	*	*	*	*	*	*	*	*	*	*custos:a	*
.	.	.	.	.	.	2d\	-kład	2f\	-kład	2a\	-ład
=18-	=18-	=18-	=18-	=18-	=18-	=18-	=18-	=18-	=18-	=18-	=18-
!	!	!	!	!	!	!	!	!	!	!LO:LB:g=original	!
1r	.	1r	.	1r	.	1A	dąn	1e	dan	1a	dan
=19-	=19-	=19-	=19-	=19-	=19-	=19-	=19-	=19-	=19-	=19-	=19-
2r	.	2r	.	2r	.	2d\	ieſt	2f\	ieſt	2a\	ieſt,
*	*	*	*	*custos:dd	*	*	*	*	*	*	*
2G/	nam	2b-\	Chri-	2dd\	nąm	2r	.	2r	.	2r	.
=20-	=20-	=20-	=20-	=20-	=20-	=20-	=20-	=20-	=20-	=20-	=20-
!	!	!	!	!LO:LB:g=original	!	!	!	!	!	!	!
1B-	na	1b-	-st(us)	1dd	na	0r	.	0r	.	0r	.
=21-	=21-	=21-	=21-	=21-	=21-	=21-	=21-	=21-	=21-	=21-	=21-
*	*	*custos:g	*	*	*	*	*	*	*	*	*
2F/	pr3y-	2a\	zmar-	2cc\	przÿ-	.	.	.	.	.	.
!	!	!LO:LB:g=original	!	!	!	!	!	!	!	!	!
2G/	-kład	1g\	-twÿch-	2b-/	-kład	.	.	.	.	.	.
=22-	=22-	=22-	=22-	=22-	=22-	=22-	=22-	=22-	=22-	=22-	=22-
1d	dan	.	.	1a	dąn	1r	.	1r	.	1r	.
!	!	!LO:TX:b:t=P:problem=# below	!	!	!	!	!	!	!	!	!
.	.	2f#X/	.	.	.	.	.	.	.	.	.
=23-	=23-	=23-	=23-	=23-	=23-	=23-	=23-	=23-	=23-	=23-	=23-
1G	eſt	1g	ieſt.	1g	ieſt.	2r	.	2r	.	2r	.
*	*	*	*	*	*	*	*ij	*	*ij	*	*
.	.	.	.	.	.	2g\	nąm	2g\	nąn	2b-\	nam
=24-	=24-	=24-	=24-	=24-	=24-	=24-	=24-	=24-	=24-	=24-	=24-
*	*	*	*	*	*	*custos:f	*	*custos:a	*	*	*
0r	.	0r	.	0r	.	1c	na	1g	na	1cc	na
=25-	=25-	=25-	=25-	=25-	=25-	=25-	=25-	=25-	=25-	=25-	=25-
!	!	!	!	!	!	!LO:LB:g=original	!	!LO:LB:g=original	!	!	!
.	.	.	.	.	.	2f\	pr3ÿ-	2a\	przÿ-	2cc\	przik-
.	.	.	.	.	.	2d\	-kład	2a\	-kład	2.dd\	-ład
=26-	=26-	=26-	=26-	=26-	=26-	=26-	=26-	=26-	=26-	=26-	=26-
1r	.	1r	.	1r	.	1A	dąn	1a	dan	.	.
.	.	.	.	.	.	.	.	.	.	8cc\L	.
.	.	.	.	.	.	.	.	.	.	8b-\J	.
.	.	.	.	.	.	.	.	.	.	2cc\	dan
=27-	=27-	=27-	=27-	=27-	=27-	=27-	=27-	=27-	=27-	=27-	=27-
2r	.	2r	.	2r	.	2d\	ieſt	2a,<\	ieſt,	2dd\	ieſt
*	*	*	*ij	*	*ij	*	*	*	*Xij	*	*
2F/	nam	2a\	Chri-	2cc\	nąm	2f\	nąm	2a\	nąm	2cc\	nam
=28-	=28-	=28-	=28-	=28-	=28-	=28-	=28-	=28-	=28-	=28-	=28-
1B-	na	1b-	-st(us)	2.b-/	na	0B-	na	1.f	na	2.dd\	na
.	.	.	.	4cc\	.	.	.	.	.	4cc\	.
=29-	=29-	=29-	=29-	=29-	=29-	=29-	=29-	=29-	=29-	=29-	=29-
1.B-	pr3y-	1.dd	zmar-	1.dd	przÿ-	.	.	.	.	1b-	przi-
.	.	.	.	.	.	.	.	2f\	przÿ-	.	.
=30-	=30-	=30-	=30-	=30-	=30-	=30-	=30-	=30-	=30-	=30-	=30-
.	.	.	.	.	.	2d\	pr3ÿ-	2f\	-kład	2a\	-kład
2G/	-kład	2a\	-twÿch-	2b-/	-kład	2g\	-kład	2g\	.	2dd\	.
=31-	=31-	=31-	=31-	=31-	=31-	=31-	=31-	=31-	=31-	=31-	=31-
1d	dan	1dd	-wstał	1a	dąn	1d	dąn	1a	dan	1dd	dan
*	*	*	*Xij	*	*	*	*	*	*	*	*
=32-	=32-	=32-	=32-	=32-	=32-	=32-	=32-	=32-	=32-	=32-	=32-
!	!	!	!	!LO:TX:b:t=P:problem=# below	!	!	!	!	!	!	!
!	!	!LO:TX:t=P:problem=brakujący takt?	!	!LO:N:acc=#	!	!	!	!	!	!	!
1G	eſt	1ryy	.	1bn	ieſt.	1g	ieſt	1g	ieſt,	1dd	ieſt,
*	*	*	*	*	*Xij	*	*Xij	*	*	*	*
=33-	=33-	=33-	=33-	=33-	=33-	=33-	=33-	=33-	=33-	=33-	=33-
00r	.	00r	.	00r	.	4r	.	4r	.	4r	.
.	.	.	.	.	.	4G/	i3	4g\	ysz	4b-\	iſz
.	.	.	.	.	.	4G/	ma-	4g\	ma-	4b-\	ma-
*	*	*	*	*	*	*	*	*	*	*custos:dd	*
.	.	.	.	.	.	4G/	-mi	4g\	-mÿ	4b-\	-mÿ
=34-	=34-	=34-	=34-	=34-	=34-	=34-	=34-	=34-	=34-	=34-	=34-
!	!	!	!	!	!	!	!	!	!	!LO:LB:g=original	!
.	.	.	.	.	.	2d\	3mar-	2a\	zmar-	2dd\	zmar-
.	.	.	.	.	.	2d\	-twy	2f\	-twÿch	2a\	-twych
=35-	=35-	=35-	=35-	=35-	=35-	=35-	=35-	=35-	=35-	=35-	=35-
.	.	.	.	.	.	2.c/	Po-	0g	pows-	1cc	po-
*	*	*	*	*	*	*custos:e	*	*	*	*	*
.	.	.	.	.	.	4d\	.	.	.	.	.
=36-	=36-	=36-	=36-	=36-	=36-	=36-	=36-	=36-	=36-	=36-	=36-
!	!	!	!	!	!	!LO:LB:g=original	!	!	!	!	!
.	.	.	.	.	.	1e-X	.	.	.	2.b-\	.
.	.	.	.	.	.	.	.	.	.	4cc\	.
=37-	=37-	=37-	=37-	=37-	=37-	=37-	=37-	=37-	=37-	=37-	=37-
4r	.	4r	.	4r	.	1d	-wſtac	1a	-tac,	1dd	-wſtać
*custos:d	*	*	*	*	*	*	*	*	*	*	*
4d\	ÿ3	4a\	iż	4dd\	Iż	.	.	.	.	.	.
!LO:LB:g=original	!	!	!	!	!	!	!	!	!	!	!
4d\	ma-	4a\	mą-	4dd\	mą-	.	.	.	.	.	.
4d\	-my	4a\	-mÿ	4dd\	-mÿ	.	.	.	.	.	.
=38-	=38-	=38-	=38-	=38-	=38-	=38-	=38-	=38-	=38-	=38-	=38-
2c/	3mar-	2cc\	zmar-	2ee-X\	zmar-	0r	.	0r	.	0r	.
2A/	-twych	2cc\	-twÿch	2cc\	-twych	.	.	.	.	.	.
=39-	=39-	=39-	=39-	=39-	=39-	=39-	=39-	=39-	=39-	=39-	=39-
4G/	pow-	1b-	pows-	1dd	pows-	.	.	.	.	.	.
4A/	.	.	.	.	.	.	.	.	.	.	.
4B-/	.	.	.	.	.	.	.	.	.	.	.
4c/	.	.	.	.	.	.	.	.	.	.	.
=40-	=40-	=40-	=40-	=40-	=40-	=40-	=40-	=40-	=40-	=40-	=40-
1d	-ſtac	1a	-tac	1dd	-tac	1r	.	1r	.	1r	.
=41-	=41-	=41-	=41-	=41-	=41-	=41-	=41-	=41-	=41-	=41-	=41-
0r	.	0r	.	0r	.	4.B-/	ſPa-	4.f\	spa-	4.b-\	ſpa-
*	*	*	*	*	*	*	*	*custos:f	*	*	*
!	!	!	!	!	!	!	!	!LO:SIC:v:l:t=custos bogiem	!	!	!
.	.	.	.	.	.	8B-/	-nem	8f\	-nem	8b-\	-nem
!	!	!	!	!	!	!	!	!LO:LB:g=original	!	!	!
.	.	.	.	.	.	4B-/	Bo-	4f\	bo-	4b-\	bo-
.	.	.	.	.	.	4F/	-giem	4f\	-giem	4a\	-giem
=42-	=42-	=42-	=42-	=42-	=42-	=42-	=42-	=42-	=42-	=42-	=42-
.	.	.	.	.	.	4G/	kru-	4d/	kro-	4g/	kro-
!	!	!	!	!	!	!	!	!	!	!LO:TX:a:t=P:problem=# above	!
.	.	.	.	.	.	4d\	-lo-	4d/	-lo-	4f#X/	-lo-
.	.	.	.	.	.	2G/	-wac,	2d/	-wac	2g/	-wac
=43-	=43-	=43-	=43-	=43-	=43-	=43-	=43-	=43-	=43-	=43-	=43-
4.B-/	s_Pa-	4.fny/	Z_Pa-	4.b-/	Z_Pa-	0r	.	0r	.	0r	.
*	*	*custos:f	*	*custos:b	*	*	*	*	*	*	*
8B-/	-nem	8f/	-nem	8b-/	-ne(m)	.	.	.	.	.	.
!	!	!LO:PB:g=original	!	!LO:LB:g=original	!	!	!	!	!	!	!
4B-/	Bo-	4f/	Bo-	4b-/	Bo-	.	.	.	.	.	.
4F/	-giem	4a\	-giem	4a/	-giem	.	.	.	.	.	.
=44-	=44-	=44-	=44-	=44-	=44-	=44-	=44-	=44-	=44-	=44-	=44-
4G/	kro-	4b-\	kro-	4g/	kro-	.	.	.	.	.	.
!	!	!	!	!LO:TX:b:t=P:problem=# below	!	!	!	!	!	!	!
4d\	-lo-	4a\	-lo-	4f#X/	-lo-	.	.	.	.	.	.
2G/	-wac	2g/	-wac	2g/	-wac	.	.	.	.	.	.
=45-	=45-	=45-	=45-	=45-	=45-	=45-	=45-	=45-	=45-	=45-	=45-
1r	.	1r	.	1r	.	4g\	Kru-	4b-\	kro-	4dd\	kro-
.	.	.	.	.	.	4d\	-lo-	4a\	-lo-	4dd\	-lo-
.	.	.	.	.	.	2g\	-wac	2g\	-wac.	2dd\	-wac,
=46-	=46-	=46-	=46-	=46-	=46-	=46-	=46-	=46-	=46-	=46-	=46-
4B-/	kro-	4b-\	kro-	4dd\	kro-	1r	.	1r	.	1r	.
!	!	!	!	!LO:TX:a:t=P:problem=# above	!	!	!	!	!	!	!
4f\	-lo-	4a\	-lo-	4cc#X\	-lo-	.	.	.	.	.	.
2B-/	-wac	2b-\	-wac	2dd\	-wac	.	.	.	.	.	.
=47-	=47-	=47-	=47-	=47-	=47-	=47-	=47-	=47-	=47-	=47-	=47-
*	*	*	*	*	*	*	*ij	*	*ij	*	*ij
1r	.	1r	.	1r	.	4B-/	Kru-	4f\	kro-	4b-\	kro-
.	.	.	.	.	.	4F/	-lo-	4f\	-lo-	4a\	-lo-
.	.	.	.	.	.	2B-/	-wac	2f\	-wac.	2b-\	-wac,
*	*	*	*	*	*	*	*	*	*Xij	*	*
=48-	=48-	=48-	=48-	=48-	=48-	=48-	=48-	=48-	=48-	=48-	=48-
*	*	*	*	*	*ij	*	*	*	*	*	*
!	!	!	!	!	!	!LO:TX:t=P:problem=brakujące takty	!	!	!	!	!
4d\	kro-	4dd\	kro-	4ff\	kro-	1ryy	.	1r	.	1r	.
*custos:d	*	*	*	*	*	*	*	*	*	*	*
4A/	-lo-	4cc\	-lo-	4eeny\	-lo-	.	.	.	.	.	.
!LO:LB:g=original	!	!	!	!	!	!	!	!	!	!	!
2d\	-wac	2dd\	-wac	2dd\	-wac	.	.	.	.	.	.
*	*	*	*	*	*Xij	*	*	*	*	*	*
=49-	=49-	=49-	=49-	=49-	=49-	=49-	=49-	=49-	=49-	=49-	=49-
1r	.	1r	.	1r	.	1ryy	.	4b-\	kro-	4dd\	kro-
.	.	.	.	.	.	.	.	4a\	-lo-	4dd\	-lo-
.	.	.	.	.	.	.	.	2g\	-wac	2dd\	-wac,
*	*	*	*	*	*	*	*	*	*	*	*Xij
=50-	=50-	=50-	=50-	=50-	=50-	=50-	=50-	=50-	=50-	=50-	=50-
*	*	*	*ij	*	*ij	*	*	*	*ij	*	*
*	*	*	*	*	*	*	*	*	*	*custos:cc	*
4d\	kro-	4a\	kro-	4ff\	kro-	4d\	Kru-	4a\	kro-	4dd\	kro-
!	!	!	!	!	!	!	!	!	!	!LO:TX:b:t=P:problem=# below	!
4a\	-lo-	4a\	-lo-	4ee\	-lo-	4A/	-lo-	4a\	-lo-	4cc#X\	-lo-
*	*	*	*	*	*	*custos:f	*	*	*	*	*
!	!	!	!	!	!	!	!	!LO:TX:b:t=P:problem=# below	!	!	!
2d\	-wac	2a\	-wac	2dd\	-wac	2d\	-wac	2f#X\	-wac	2dd,<\	-wac,
*	*	*	*Xij	*	*Xij	*	*Xij	*	*Xij	*	*
=51-	=51-	=51-	=51-	=51-	=51-	=51-	=51-	=51-	=51-	=51-	=51-
!	!	!	!	!	!	!LO:LB:g=original	!	!	!	!	!
1r	.	1r	.	1r	.	4f\	ſPa-	4a\	spa-	4ccny\	ſpa-
.	.	.	.	.	.	4f\	-nem	4a\	-nem	4cc\	-nem
.	.	.	.	.	.	4c/	Bo-	4g\	bo-	4cc\	bo-
.	.	.	.	.	.	4G/	-giem	4g\	-giem	4dd\	-giem
=52-	=52-	=52-	=52-	=52-	=52-	=52-	=52-	=52-	=52-	=52-	=52-
!	!	!	!	!	!	!	!	!LO:TX:a:t=P:problem=# above	!	!LO:TX:t=P:problem=niezgodny pion harmoniczny	!
4d\	s_Pa-	4dd\	Z_Pa-	4ff\	z_Pa-	4d\	Kru-	4f#X\	kro-	4dd\	kro-
4d\	-nem	4dd\	-ne(m)	4ff\	-nem	4d\	-lo-	4f#\	-lo-	4dd\	-lo-
*	*	*	*	*	*	*	*	*custos:a	*	*	*
4g\	Bo-	4dd\	Bo-	4dd\	Bo-	2G/	-wac	2g\	-wac	2dd,<\	-wac,
4g\	-giem	4b-\	-gie(m)	4dd\	-giem	.	.	.	.	.	.
=53-	=53-	=53-	=53-	=53-	=53-	=53-	=53-	=53-	=53-	=53-	=53-
*	*	*	*	*	*	*	*ij	*	*ij	*	*ij
!	!	!	!	!	!	!	!	!LO:LB:g=original	!	!	!
4d\	kro-	4dd\	kro-	4dd\	kro-	4d\	ſPa-	4a\	spa-	4dd\	ſpa-
4d\	-lo-	4dd\	-lo-	4dd\	-lo-	4d\	-nem	4a\	-nem	4dd\	-nem
2g\	-wac	2b-\	-wac	2dd\	-wac,	4G/	Bo-	4g\	bo-	4dd\	bo-
.	.	.	.	.	.	4G/	-giem	4g\	-giem	4dd\	-giem
=54-	=54-	=54-	=54-	=54-	=54-	=54-	=54-	=54-	=54-	=54-	=54-
*	*ij	*	*	*	*	*	*	*	*	*	*
!	!	!	!	!LO:TX:t=P:problem=brakujące 2 takty?	!	!	!	!LO:TX:a:t=P:problem=# above	!	!	!
4d\	s_Pa-	4dd\	Z_Pa-	1ryy	.	4d\	Kru-	4f#X\	kro-	4dd\	kro-
*	*	*custos:dd	*	*	*	*	*	*	*	*	*
4d\	-nem	4dd\	-ne(m)	.	.	4d\	-lo-	4f#\	-lo-	4dd\	-lo-
!	!	!LO:LB:g=original	!	!	!	!	!	!	!	!	!
4g\	Bo-	4dd\	Bo-	.	.	2G/	-wac	2g,<\	-wac	2dd,<\	-wac,
*	*	*	*	*	*	*	*Xij	*	*Xij	*	*Xij
4g\	-giem	4b-\	-giem	.	.	.	.	.	.	.	.
=55-	=55-	=55-	=55-	=55-	=55-	=55-	=55-	=55-	=55-	=55-	=55-
4d\	kro-	4dd\	kro-	1ryy	.	4d\	kru-	4a\	kro-	4dd\	kro-
4d\	-lo-	4dd\	-lo-	.	.	4d\	-lo-	4a\	-lo-	4dd\	-lo-
2G/	-wac	2b-\	-wac	.	.	2g\	-wac	2g\	-wac	2dd\	-wac
*	*Xij	*	*	*	*	*	*	*	*	*	*
=56-	=56-	=56-	=56-	=56-	=56-	=56-	=56-	=56-	=56-	=56-	=56-
*	*	*	*	*	*ij	*	*	*	*	*	*
4d\	kro-	4dd\	kro-	4ff\	kro-	1r	.	1r	.	1r	.
!	!	!LO:TX:b:t=P:problem=# below	!	!	!	!	!	!	!	!	!
4A/	-lo-	4cc#X\	-lo-	4ee\	-lo-	.	.	.	.	.	.
2d\	-wac	2dd\	-wac,	2dd\	-wac,	.	.	.	.	.	.
=57-	=57-	=57-	=57-	=57-	=57-	=57-	=57-	=57-	=57-	=57-	=57-
*	*	*	*	*	*	*	*ij	*	*ij	*	*ij
1r	.	1r	.	1r	.	4d\	kru-	4d/	kro-	4a\	kro-
.	.	.	.	.	.	4A/	-lo-	4e/	-lo-	4a\	-lo-
!	!	!	!	!	!	!	!	!LO:TX:b:t=P:problem=# below	!	!	!
.	.	.	.	.	.	2d\	-wac	2f#X\	-wac	2a\	-wac
*	*	*	*	*	*	*	*Xij	*	*Xij	*	*Xij
=58-	=58-	=58-	=58-	=58-	=58-	=58-	=58-	=58-	=58-	=58-	=58-
*	*	*	*ij	*	*	*	*	*	*	*	*
*	*	*	*	*	*	*custos:g	*	*	*	*	*
4B-/	kro-	4b-\	kro-	4dd\	kro-	1r	.	1r	.	1r	.
4F/	-lo-	4a\	-lo-	4ccny\	-lo-	.	.	.	.	.	.
*custos:G	*	*	*	*	*	*	*	*	*	*	*
2B-/	-wac	2b-\	-wac,	2dd\	-wac,	.	.	.	.	.	.
=59-	=59-	=59-	=59-	=59-	=59-	=59-	=59-	=59-	=59-	=59-	=59-
!LO:LB:g=original	!	!	!	!	!	!LO:PB:g=original	!	!	!	!	!
4G/	kro-	4dd\	kro-	4b-/	kro-	4g\	kru-	4g\	kro-	4dd\	kro-
4d\	-lo-	4a\	-lo-	4cc\	-lo-	4d\	-lo-	4a\	-lo-	4dd\	-lo-
*	*	*	*	*custos:dd	*	*	*	*	*	*	*
2G/	-wac	2b-\	-wac,	2dd\	-wac,	2g\	-wac	2g\	-wac	2dd\	-wac,
*	*	*	*Xij	*	*Xij	*	*	*	*	*	*
=60-	=60-	=60-	=60-	=60-	=60-	=60-	=60-	=60-	=60-	=60-	=60-
*M3/2	*	*M3/2	*	*M3/2	*	*M3/2	*	*M3/2	*	*M3/2	*
*	*	*	*	*	*	*	*	*	*	*custos:g	*
!	!	!	!	!LO:PB:g=original	!	!	!	!	!	!	!
!	!	!LO:TX:t=P:problem=litera Z.color=red	!	!	!	!	!	!	!	!	!
1G	spa-	1b-	Z_Pa-	1dd	Z_Pa-	1g	SPa-	1b-	Spa-	1dd	Spa-
!	!	!	!	!	!	!	!	!	!	!LO:LB:g=original	!
2c/	-nem	2dd\	-nem	2cc\	-nem	2c/	-nem	2g\	-nem	2g/	-nem
=61-	=61-	=61-	=61-	=61-	=61-	=61-	=61-	=61-	=61-	=61-	=61-
1F	Bo-	1a	Bo-	1cc	Bo-	1f	Bo-	1fny	bo-	1cc	bo-
2B-/	-giem	2b-\	-giem	2dd\	-giem	2B-/	-giem	2f\	-giem	2b-\	-giem
=62-	=62-	=62-	=62-	=62-	=62-	=62-	=62-	=62-	=62-	=62-	=62-
2B-/	kro-	2b-\	kro-	2dd\	kro-	2d\	kro-	2f\	kro-	2dd\	kro-
1G	-lo-	1b-	-lo-	1dd	-lo-	1g	-lo-	1g	-lo-	1b-	-lo-
*	*	*custos:a	*	*	*	*	*	*	*	*	*
*	*	*	*	*	*	*	*	*custos:a	*	*	*
!	!	!LO:TX:t=P:problem=kreska pseudotaktowa	!	!	!	!	!	!	!	!	!
1d	-wac	1a	-wac	1dd	-wac	1d	-wac	1a	-wac	1dd	-wac
=63-	=63-	=63-	=63-	=63-	=63-	=63-	=63-	=63-	=63-	=63-	=63-
*M2/2	*	*M2/2	*	*M2/2	*	*M2/2	*	*M2/2	*	*M2/2	*
*met(c|)	*	*met(c|)	*	*met(c|)	*	*met(c|)	*	*met(c|)	*	*met(c|)	*
!	!	!LO:LB:g=original	!	!	!	!	!	!LO:LB:g=original	!	!	!
1r	.	1r	.	1r	.	4A/	ſPa-	4a\	Spa-	4cc\	Spa-
.	.	.	.	.	.	4A/	-nem	4a\	-nem	4cc\	-nem
.	.	.	.	.	.	4d\	Bo-	4a\	bo-	4dd\	bo-
.	.	.	.	.	.	4d\	-giem	4a\	-giem	4dd\	-giem
=64-	=64-	=64-	=64-	=64-	=64-	=64-	=64-	=64-	=64-	=64-	=64-
4a\	S_Pa-	4a\	Z_Pa-	4ee\	Z_Pa-	4A/	kru-	4a\	kro-	4ee\	kro-
4a\	-nem	4a\	-nem	4ee\	-nem	4A/	-lo-	4a\	-lo-	4ee\	-lo-
!	!	!	!	!	!	!	!	!LO:TX:b:t=P:problem=# below	!	!LO:TX:t=P:problem=niezgodny pion harmoniczny	!
4d\	Bo-	4a\	Bo-	4ff\	Bo-	2d\	-wac	2f#X\	-wac	2dd,<\	-wac
4d\	-giem	4a\	-giem	4dd\	-giem	.	.	.	.	.	.
=65-	=65-	=65-	=65-	=65-	=65-	=65-	=65-	=65-	=65-	=65-	=65-
*	*	*	*	*	*	*	*ij	*	*ij	*	*ij
!	!	!	!	!LO:TX:a:t=P:problem=# above	!	!	!	!	!	!	!
4a\	kro-	4a\	kro-	4cc#X\	kro-	4A/	ſPa-	4a\	Spa-	4g/	Spa-
!	!	!	!	!LO:TX:a:t=P:problem=# above	!	!	!	!	!	!	!
4a\	-lo-	4a\	-lo-	4cc#X\	-lo-	4A/	-nem	4a\	-nem	4g/	-nem
2d\	-wac	2a\	-wac,	2dd\	-wac	4d\	bo-	4a\	bo-	4g/	bo-
*	*	*	*	*	*	*custos:A	*	*	*	*	*
.	.	.	.	.	.	4d\	-giem	4a\	-giem	4dd\	-giem
=66-	=66-	=66-	=66-	=66-	=66-	=66-	=66-	=66-	=66-	=66-	=66-
*	*ij	*	*ij	*	*ij	*	*	*	*	*	*
!	!	!	!	!	!	!LO:LB:g=original	!	!	!	!	!
4a\	S_Pa-	4a\	Z_Pa-	4ee\	Z_Pa-	4A/	kru-	4a\	kro-	4ee\	kro-
!	!	!	!	!	!	!	!	!	!	!LO:TX:b:t=P:problem=# below	!
4a\	-nem	4a\	-nem	4ee\	-nem	4A/	-lo-	4a\	-lo-	4cc#X\	-lo-
4d\	Bo-	4a\	Bo-	4ff\	Bo-	2d\	-wac	2fny\	-wac	2dd,<\	-wac
*	*	*	*	*	*	*	*Xij	*	*Xij	*	*Xij
4d\	-giem	4a\	-giem	4dd\	-giem	.	.	.	.	.	.
=67-	=67-	=67-	=67-	=67-	=67-	=67-	=67-	=67-	=67-	=67-	=67-
4d\	kro-	4a\	kro-	4dd\	kro-	4d\	[kru-	4a\	kro-	4a/	kro-
!	!	!	!	!LO:TX:b:t=P:problem=# below	!	!	!	!	!	!	!
4A/	-lo-	4a\	-lo-	4cc#X\	-lo-	4a\	-lo-	4a\	-lo-	4a/	-lo-
*	*	*	*	*custos:ff	*	*	*	*	*	*	*
*custos:d	*	*	*	*	*	*	*	*	*	*	*
!	!	!	!	!LO:TX:t=P:problem=kreska pseudotaktowa	!	!	!	!LO:TX:b:t=P:problem=# below	!	!	!
2d\	-wac	2a\	-wac,	2dd\	-wac	2d\	-wac]	2f#X\	-wac	2dd\	-wac
*	*Xij	*	*Xij	*	*Xij	*	*	*	*	*	*
=68-	=68-	=68-	=68-	=68-	=68-	=68-	=68-	=68-	=68-	=68-	=68-
*M3/2	*	*M3/2	*	*M3/2	*	*M3/2	*	*M3/2	*	*M3/2	*
*	*	*	*	*	*	*	*	*	*	*custos:b	*
!LO:LB:g=original	!	!	!	!LO:LB:g=original	!	!	!	!	!	!	!
0.r	.	0.r	.	0.r	.	1d	Al-	1a	Al-	1dd	Al-
!	!	!	!	!	!	!	!	!	!	!LO:LB:g=original	!
.	.	.	.	.	.	2g\	-l(e-	2g\	-le-	2b-\	-le-
=69-	=69-	=69-	=69-	=69-	=69-	=69-	=69-	=69-	=69-	=69-	=69-
.	.	.	.	.	.	1f	-lu-	1a	-lu-	1ccny	-lu-
.	.	.	.	.	.	2c/	-i)a	2g,<\	-ia	2cc,<\	-ia,
=70-	=70-	=70-	=70-	=70-	=70-	=70-	=70-	=70-	=70-	=70-	=70-
1.r	.	1.r	.	1.r	.	2d\	Al-	2a\	al-	2a\	al-
.	.	.	.	.	.	2G/	-l(e-	2b-\	-le-	2dd\	-le-
*	*	*	*	*	*	*	*	*custos:a	*	*	*
.	.	.	.	.	.	2A/	-lu-	2a\	-lu-	2cc\	-lu-
=71-	=71-	=71-	=71-	=71-	=71-	=71-	=71-	=71-	=71-	=71-	=71-
2r	.	2r	.	2r	.	1d	-i)a	1a	-ia	1dd	-ia,
!	!	!LO:TX:t=P:problem=litera A.color=red	!	!	!	!	!	!	!	!	!
2d\	Al-	2dd\	Al-	2ff\	Al-	.	.	.	.	.	.
2A/	-le-	2ccny\	-l(e-	2ee\	-l(e-	2r	.	2r	.	2r	.
=72-	=72-	=72-	=72-	=72-	=72-	=72-	=72-	=72-	=72-	=72-	=72-
1B-	-lu-	1b-	-lu-	1dd	-lu-	0.r	.	0.r	.	0.r	.
2F,</	-ia	2a\	-i)a.	2ccny\	-i)a.	.	.	.	.	.	.
=73-	=73-	=73-	=73-	=73-	=73-	=73-	=73-	=73-	=73-	=73-	=73-
2B-/	Al-	2b-\	Al-	2dd\	Al-	.	.	.	.	.	.
2d\	-le-	2dd\	-l(e-	2ff\	-l(e-	.	.	.	.	.	.
*	*	*custos:b	*	*	*	*	*	*	*	*	*
2A/	-lu-	2cc\	-lu-	2ee\	-lu-	.	.	.	.	.	.
=74-	=74-	=74-	=74-	=74-	=74-	=74-	=74-	=74-	=74-	=74-	=74-
!	!	!LO:LB:g=original	!	!	!	!	!	!	!	!	!
1d	-ia.	1b-	-i)a.	1dd	-i)a.	2r	.	2r	.	2r	.
.	.	.	.	.	.	2f\	Al-	2cc\	Al-	2ff\	Al-
2r	.	2r	.	2r	.	2c/	-l(e-	2cc\	-le-	2ee\	-le-
=75-	=75-	=75-	=75-	=75-	=75-	=75-	=75-	=75-	=75-	=75-	=75-
0.r	.	0.r	.	0.r	.	1d	-lu-	1a	-lu-	1dd	-lu-
*	*	*	*	*	*	*custos:G	*	*	*	*	*
!	!	!	!	!	!	!	!	!	!	!LO:TX:b:t=P:problem=# below	!
.	.	.	.	.	.	2A/	-i)a	2a,<\	-ia	2cc#X,<\	-ia,
=76-	=76-	=76-	=76-	=76-	=76-	=76-	=76-	=76-	=76-	=76-	=76-
!	!	!	!	!	!	!LO:LB:g=original	!	!	!	!	!
.	.	.	.	.	.	2G/	Al-	2b-\	al-	2dd\	al-
.	.	.	.	.	.	2d\	-l(e-	2a\	-le-	2dd\	-le-
.	.	.	.	.	.	2A/	-lu-	2a\	-lu-	2ccny\	-lu-
=77-	=77-	=77-	=77-	=77-	=77-	=77-	=77-	=77-	=77-	=77-	=77-
*M2/2	*	*M2/2	*	*M2/2	*	*M2/2	*	*M2/2	*	*M2/2	*
*met(c|)	*	*met(c|)	*	*met(c|)	*	*met(c|)	*	*met(c|)	*	*met(c|)	*
2r	.	2r	.	2r	.	2d\	-i)a	2a,<\	-ia	2dd,<\	-ia,
2G/	Al-	2b-\	Al-	2dd\	Al-	2g\	Al-	2g\	al-	2dd\	al-
=78-	=78-	=78-	=78-	=78-	=78-	=78-	=78-	=78-	=78-	=78-	=78-
1G	-le-	1b-	-l(e-	1dd	-l(e-	1g	-le-	1g	-le-	2.b-\	-le-
.	.	.	.	.	.	.	.	.	.	4a\	lu-
=79-	=79-	=79-	=79-	=79-	=79-	=79-	=79-	=79-	=79-	=79-	=79-
1c	-lu-	1cc	-lu-	1cc	-lu-	4c/	-lu-	1g	-lu-	1g	-ia,
.	.	.	.	.	.	4d/	.	.	.	.	.
.	.	.	.	.	.	4eny/	.	.	.	.	.
.	.	.	.	.	.	4f/	.	.	.	.	.
=80-	=80-	=80-	=80-	=80-	=80-	=80-	=80-	=80-	=80-	=80-	=80-
2G,</	-ia	2b-\	-i)a.	2dd\	-i)a.	2g\	-ia	2g,<\	-ia	2dd\	al-
2G/	Al-	2g/	Al-	2dd\	Al-	2g\	al-	2g\	al-	2b-\	-le-
=81-	=81-	=81-	=81-	=81-	=81-	=81-	=81-	=81-	=81-	=81-	=81-
2.d\	-le-	2.a\	-l(e-	2.dd\	-l(e-	2.d\	-lę-	2.a\	-le-	1a	-lu-
4d\	-lu-	4dd\	-lu-	4dd\	-lu-	4d\	-lu-	4a\	-lu-	.	.
=82-	=82-	=82-	=82-	=82-	=82-	=82-	=82-	=82-	=82-	=82-	=82-
!	!	!LO:N:acc=#	!	!	!	!	!	!	!	!LO:N:acc=#	!
0Gl	-ia	0bnl	-i)a.	0ddl	-i)a.	0gl	-ia	0gl	-ia;	0bnl	-ia,
=-	=-	=-	=-	=-	=-	=-	=-	=-	=-	=-	=-
*-	*-	*-	*-	*-	*-	*-	*-	*-	*-	*-	*-
!!!system-decoration: [(s1,s2,s3)][(s4,s5,s6)]
!!!RDF**kern: l = terminal long
!!!RDF**kern: < = below
!!!RDF**kern: > = above
!!!ENC: Filip Voros
!!!END: 2021-10-18
!!!ENC: Marta Chmielewska
!!!END: 2021-10-25
